X:1
T:Title
%%score 1 { 2 | 3 }
L:1/8
Q:1/4=96
M:3/4
K:Ab
V:1 treble nm="Grand Piano, Soprano"
V:2 bass nm="Choir Pad, Anatolia, Theodore Perkins"
V:3 bass 
V:1
 [Ec][=D_c] [E=c]2 [CA]2 | [CE][DF] [CE]2 [CA]2 | [EG][EA] [EB]2 [EB]2 | [Ed][Ec] [EB]4 | %4
w: By~Theodore~Edson~Perkins,~1884 * * *||||
 [Ec][=D_c] [E=c]2 [CA]2 | [CA][EG] [DF]2 [FA]2 | [FA][DF] [CE]2 [CA]2 | [DB][DG] [CA]4 | %8
w: ||||
 [EB][EB] [Ee]2 [GB]2 | [Ac][Fd] [Ec]2 [CA]2 | [Fd][Af] [Ae]2 [Ac]2 | [GB]A [GB]4 | %12
w: ||||
 [Ec][=D_c] [E=c]2 [CA]2 | [FA][EG] [DF]2 [FA]2 | [FA][DF] [CE]2 [CA]2 | [DB][DG] [CA]4- | %16
w: ||||
 [CA]4 z2 |] %17
w: |
V:2
 A,A, A,2 A,2 | A,A, A,2 A,2 | B,A, G,2 G,2 | B,A, G,4 | A,A, A,2 A,2 | A,A, A,2 A,2 | %6
 A,A, A,2 A,2 | G,B, A,4 | G,G, G,2 B,2 | A,A, A,2 A,2 | A,A,[K:treble] C2 E2 | EC E4 | %12
 A,A, A,2 A,2 | A,A, A,2 A,2 | A,A, A,2 A,2 | G,B, A,4- | A,4 z2 |] %17
V:3
 A,,A,, A,,2 A,,2 | A,,A,, A,,2 A,,2 | E,E, E,2 E,2 | E,E, E,4 | A,,A,, A,,2 A,,2 | %5
 A,,A,, D,2 D,2 | D,F, z2 z2 | E,E, A,,4 | E,E, E,2 E,2 | z6 | D,D, A,,2 A,,2 | E,F, E,4 | %12
 z2 A,,2 A,,2 | A,,A,, D,2 D,2 | D,D, A,,2 A,,2 | E,E, A,,4- | A,,4 z2 |] %17

